svgs/sharp-regular/trash-can-slash.svg

<svg xmlns="http://www.w3.org/2000/svg" viewBox="0 0 640 512"><!--! Font Awesome Pro 6.6.0 by @fontawesome - https://fontawesome.com License - https://fontawesome.com/license (Commercial License) Copyright 2024 Fonticons, Inc. --><path d="M243.2 0L256 0 384 0l12.8 0L404 10.7 450.2 80 464 80l48 0 32 0 0 48-32 0 0 246.7 108.9 84.6 19 14.7-29.4 37.9-19-14.7L19 52.7 0 38 29.4 .1l19 14.7 84 65.2L176 80l13.8 0L236 10.7 243.2 0zm-49 128L304 213.2l0-21.2 0-16 32 0 0 16 0 46.1 48 37.3 0-83.4 0-16 32 0 0 16 0 108.2 48 37.3L464 128l-269.8 0zM128 196.9l48 37.8L176 464l288 0 0-2.4 48 37.8 0 12.6-48 0-288 0-48 0 0-48 0-267.1zm96 75.6l32 25.2L256 400l0 16-32 0 0-16 0-127.5zm80 63l32 25.2 0 39.3 0 16-32 0 0-16 0-64.5zM247.5 80l145 0L371.2 48 268.8 48 247.5 80z"/></svg>

<svg xmlns="http://www.w3.org/2000/svg" viewBox="0 0 640 512"><!--! Font Awesome Pro 6.4.0 by @fontawesome - https://fontawesome.com License - https://fontawesome.com/license (Commercial License) Copyright 2023 Fonticons, Inc. --><path d="M243.2 0H256 384h12.8L404 10.7 450.2 80H464h48 32v48H512V374.7l108.9 84.6 19 14.7-29.4 37.9-19-14.7L19 52.7 0 38 29.4 .1l19 14.7 84 65.2H176h13.8L236 10.7 243.2 0zm-49 128L304 213.2V192 176h32v16 46.1l48 37.3V192 176h32v16V300.2l48 37.3V128H194.2zM128 196.9l48 37.8V464H464v-2.4l48 37.8V512H464 176 128V464 196.9zm96 75.6l32 25.2V400v16H224V400 272.5zm80 63l32 25.2V400v16H304V400 335.5zM247.5 80h145L371.2 48H268.8L247.5 80z"/></svg>
